icon/ir/car-outline.svg

<svg stroke-width="1.5" viewBox="0 0 24 24" fill="none" xmlns="http://www.w3.org/2000/svg" height="1em" width="1em">
  <path d="M8 10L16 10" stroke="currentColor" stroke-linecap="round" stroke-linejoin="round"/>
  <path d="M7 14L8 14" stroke="currentColor" stroke-linecap="round" stroke-linejoin="round"/>
  <path d="M16 14L17 14" stroke="currentColor" stroke-linecap="round" stroke-linejoin="round"/>
  <path d="M3 18V11.4105C3 11.1397 3.05502 10.8716 3.16171 10.6227L5.4805 5.21216C5.79566 4.47679 6.51874 4 7.31879 4H16.6812C17.4813 4 18.2043 4.47679 18.5195 5.21216L20.8383 10.6227C20.945 10.8716 21 11.1397 21 11.4105V18M3 18V20.4C3 20.7314 3.26863 21 3.6 21H6.4C6.73137 21 7 20.7314 7 20.4V18M3 18H7M21 18V20.4C21 20.7314 20.7314 21 20.4 21H17.6C17.2686 21 17 20.7314 17 20.4V18M21 18H17M7 18H17" stroke="currentColor" stroke-width="1.5"/>
</svg>

<svg width="24" height="24" stroke-width="1.5" fill="none" xmlns="http://www.w3.org/2000/svg"><path d="M8 10h8M7 14h1M16 14h1" stroke="currentColor" stroke-linecap="round" stroke-linejoin="round"/><path d="M3 18v-6.59a2 2 0 0 1 .162-.787l2.319-5.41A2 2 0 0 1 7.319 4h9.362a2 2 0 0 1 1.838 1.212l2.32 5.41a2 2 0 0 1 .161.789V18M3 18v2.4a.6.6 0 0 0 .6.6h2.8a.6.6 0 0 0 .6-.6V18m-4 0h4m14 0v2.4a.6.6 0 0 1-.6.6h-2.8a.6.6 0 0 1-.6-.6V18m4 0h-4M7 18h10" stroke="currentColor"/></svg>
